applications/dashboard/design/images/authenticators/linkedin.svg

<svg xmlns="http://www.w3.org/2000/svg" viewBox="0 0 24 24"><title>LinkedIn</title><path d="M18.338 18.338H15.67v-4.177c0-1-.018-2.278-1.387-2.278-1.389 0-1.6 1.086-1.6 2.206v4.249h-2.67v-8.59h2.561v1.174h.036a2.8 2.8 0 0 1 2.526-1.387c2.7 0 3.2 1.779 3.2 4.092zM7 8.574a1.548 1.548 0 1 1 1.552-1.548A1.549 1.549 0 0 1 7 8.574zm-1.331 9.764h2.67v-8.59h-2.67zM19.668 3H4.329A1.314 1.314 0 0 0 3 4.3v15.4A1.315 1.315 0 0 0 4.329 21h15.339A1.317 1.317 0 0 0 21 19.7V4.3A1.316 1.316 0 0 0 19.668 3z" fill="#fff"/></svg>

<svg xmlns="http://www.w3.org/2000/svg" viewBox="0 0 24 24">
  <title>LinkedIn</title>
  <path d="M18.338,18.338H15.67V14.161c0-1-.018-2.278-1.387-2.278-1.389,0-1.6,1.086-1.6,2.206v4.249H10.013V9.748h2.561v1.174h.036a2.8,2.8,0,0,1,2.526-1.387c2.7,0,3.2,1.779,3.2,4.092ZM7,8.574A1.548,1.548,0,1,1,8.552,7.026,1.549,1.549,0,0,1,7,8.574ZM5.669,18.338h2.67V9.748H5.669ZM19.668,3H4.329A1.314,1.314,0,0,0,3,4.3V19.7A1.315,1.315,0,0,0,4.329,21H19.668A1.317,1.317,0,0,0,21,19.7V4.3A1.316,1.316,0,0,0,19.668,3Z" style="fill: #fff"/>
</svg>
